X:13
T:Kelsey's Wee Reel
T:Harmony 3
R:Reel
L:1/8
C:Iain Symington
M:C|
L:1/8
Q:"76 bpm"
K:D
[| {g}A2 {g}cA {g}ec{g}c{G}c | {g}Aa{g}ae {g}fe{g}fa | {AGAG}A2 {g}cA {g}ec{g}c{G}c | {g}Bcde {g}fe{g}fa |
{AGAG}A2 {g}cA {g}ec{g}c{G}c | {g}Aa{g}ae {g}fe{g}fa | Aa{g}ae {g}fc{g}c{G}c | {g}Bcde {g}fe{g}fa |]
c3 d2 e{A}(e2 | e4) {g}dcdf |c3 d2 e{A}e2 | dcde dcdf |
c3 d2 e{A}e2 | d2 (c2 c)e{A}e2 | c3 d2 e{A}e2 | Bc{g}de {g}fe{g}fa |
{AGAG}A2 {g}cA {g}ec{g}c{G}c | A8 | G2{g}BG {g}dB{g}B{G}B | G8 |
{AGAG}A2 {g}cA {g}ec{g}c{G}c | {g}Aa{g}ae {g}fe{g}fa | A3 c de3 | dcde {g}fedB | e8|]

